assets/icons/18px/outline/line-weight-18px.svg

<svg width="18" height="18" viewBox="0 0 18 18" fill="none" xmlns="http://www.w3.org/2000/svg">
<path d="M5 12H13C13.4997 12 13.7738 12.0021 13.964 12.0277C13.9665 12.028 13.9689 12.0284 13.9713 12.0287C13.9716 12.0311 13.972 12.0335 13.9723 12.036C13.9979 12.2262 14 12.5003 14 13C14 13.4997 13.9979 13.7738 13.9723 13.964C13.972 13.9665 13.9716 13.9689 13.9713 13.9713C13.9689 13.9716 13.9665 13.972 13.964 13.9723C13.7738 13.9979 13.4997 14 13 14H5C4.50033 14 4.22617 13.9979 4.03598 13.9723C4.0335 13.972 4.03107 13.9716 4.02869 13.9713C4.02836 13.9689 4.02803 13.9665 4.02769 13.964C4.00212 13.7738 4 13.4997 4 13C4 12.5003 4.00212 12.2262 4.02769 12.036C4.02803 12.0335 4.02836 12.0311 4.02869 12.0287C4.03107 12.0284 4.0335 12.028 4.03598 12.0277C4.22617 12.0021 4.50033 12 5 12Z" fill="white" stroke="white" stroke-width="2"/>
<mask id="path-2-inside-1_913_26444" fill="white">
<path d="M3 7.5C3 6.94772 3.44772 6.5 4 6.5H14C14.5523 6.5 15 6.94772 15 7.5V7.5C15 8.05228 14.5523 8.5 14 8.5H4C3.44772 8.5 3 8.05228 3 7.5V7.5Z"/>
</mask>
<path d="M3 7.5C3 6.94772 3.44772 6.5 4 6.5H14C14.5523 6.5 15 6.94772 15 7.5V7.5C15 8.05228 14.5523 8.5 14 8.5H4C3.44772 8.5 3 8.05228 3 7.5V7.5Z" fill="white"/>
<path d="M4 8.5H14V4.5H4V8.5ZM14 6.5H4V10.5H14V6.5ZM4 6.5C4.55229 6.5 5 6.94772 5 7.5H1C1 9.15685 2.34314 10.5 4 10.5V6.5ZM13 7.5C13 6.94772 13.4477 6.5 14 6.5V10.5C15.6569 10.5 17 9.15685 17 7.5H13ZM14 8.5C13.4477 8.5 13 8.05228 13 7.5H17C17 5.84315 15.6569 4.5 14 4.5V8.5ZM4 4.5C2.34315 4.5 1 5.84315 1 7.5H5C5 8.05228 4.55228 8.5 4 8.5V4.5Z" fill="white" mask="url(#path-2-inside-1_913_26444)"/>
<mask id="path-4-inside-2_913_26444" fill="white">
<path d="M3 3.5C3 3.22386 3.22386 3 3.5 3H14.5C14.7761 3 15 3.22386 15 3.5V3.5C15 3.77614 14.7761 4 14.5 4H3.5C3.22386 4 3 3.77614 3 3.5V3.5Z"/>
</mask>
<path d="M3 3.5C3 3.22386 3.22386 3 3.5 3H14.5C14.7761 3 15 3.22386 15 3.5V3.5C15 3.77614 14.7761 4 14.5 4H3.5C3.22386 4 3 3.77614 3 3.5V3.5Z" fill="white"/>
<path d="M3.5 5H14.5V1H3.5V5ZM14.5 2H3.5V6H14.5V2ZM3.5 2C4.32843 2 5 2.67157 5 3.5H1C1 4.88071 2.11929 6 3.5 6V2ZM13 3.5C13 2.67157 13.6716 2 14.5 2V6C15.8807 6 17 4.88071 17 3.5H13ZM14.5 5C13.6716 5 13 4.32843 13 3.5H17C17 2.11929 15.8807 1 14.5 1V5ZM3.5 1C2.11929 1 1 2.11929 1 3.5H5C5 4.32843 4.32843 5 3.5 5V1Z" fill="white" mask="url(#path-4-inside-2_913_26444)"/>
</svg>

<svg width="18" height="18" fill="none" xmlns="http://www.w3.org/2000/svg"><path d="M5 12h8c.5 0 .774.002.964.028h.007l.001.008c.026.19.028.464.028.964 0 .5-.002.774-.028.964v.007l-.008.001c-.19.026-.464.028-.964.028H5c-.5 0-.774-.002-.964-.028h-.007l-.001-.008C4.002 13.774 4 13.5 4 13c0-.5.002-.774.028-.964v-.007l.008-.001C4.226 12.002 4.5 12 5 12z" fill="#fff" stroke="#fff" stroke-width="2"/><mask id="a" fill="#fff"><path d="M3 7.5a1 1 0 0 1 1-1h10a1 1 0 1 1 0 2H4a1 1 0 0 1-1-1z"/></mask><path d="M3 7.5a1 1 0 0 1 1-1h10a1 1 0 1 1 0 2H4a1 1 0 0 1-1-1z" fill="#fff"/><path d="M4 8.5h10v-4H4v4zm10-2H4v4h10v-4zm-10 0a1 1 0 0 1 1 1H1a3 3 0 0 0 3 3v-4zm9 1a1 1 0 0 1 1-1v4a3 3 0 0 0 3-3h-4zm1 1a1 1 0 0 1-1-1h4a3 3 0 0 0-3-3v4zm-10-4a3 3 0 0 0-3 3h4a1 1 0 0 1-1 1v-4z" fill="#fff" mask="url(#a)"/><mask id="b" fill="#fff"><path d="M3 3.5a.5.5 0 0 1 .5-.5h11a.5.5 0 0 1 0 1h-11a.5.5 0 0 1-.5-.5z"/></mask><path d="M3 3.5a.5.5 0 0 1 .5-.5h11a.5.5 0 0 1 0 1h-11a.5.5 0 0 1-.5-.5z" fill="#fff"/><path d="M3.5 5h11V1h-11v4zm11-3h-11v4h11V2zm-11 0A1.5 1.5 0 0 1 5 3.5H1A2.5 2.5 0 0 0 3.5 6V2zM13 3.5A1.5 1.5 0 0 1 14.5 2v4A2.5 2.5 0 0 0 17 3.5h-4zM14.5 5A1.5 1.5 0 0 1 13 3.5h4A2.5 2.5 0 0 0 14.5 1v4zm-11-4A2.5 2.5 0 0 0 1 3.5h4A1.5 1.5 0 0 1 3.5 5V1z" fill="#fff" mask="url(#b)"/></svg>
